X: 27
T: Vol\'es o\"ir une chanson
N: Derived from Com3047-Voles_oir_une_chanson.krn
C: Loyset Comp\`ere
%%abc-version 2.0
%%abcx-abcm2ps-target-version 5.9.1 (29 Sep 2008)
%%abc-creator hum2abc beta
%%abcx-conversion-date 2019/02/16 20:28:09
%%abc-edited-by Jesse Rodin
%%abc-edited-by Megan K. Eagen 2013/12/18
%%abcx-initial-encoding-date 2013/12/18/
%%humdrum-veritas 144577753
%%humdrum-veritas-data 4263830731
%%linebreak <none>
%%barnumbers 0
L: 1/4
M: 2/1
Q: 1/2=120
%%staves [1 2 3 4]
V: 1 clef=treble
V: 2 clef=treble-8
V: 3 clef=treble-8
V: 4 clef=bass
K: F
[V:1] z8 | 
[V:2] z8 | 
[V:3] z8 | 
[V:4] G,8 | 
[V:1] z8 | 
[V:2] z8 | 
[V:3] z8 | 
[V:4] E,4F,4 | 
[V:1] z8 | 
[V:2] d8 | 
[V:3] z8 | 
[V:4] G,6G,2 | 
[V:1] G8 | 
[V:2] B8 | 
[V:3] z8 | 
[V:4] G,4E,4 | 
[V:1] E8 | 
[V:2] c8 | 
[V:3] z8 | 
[V:4] C,4E,4 | 
[V:1] F8 | 
[V:2] d8- | 
[V:3] d8 | 
[V:4] D,3C,D,4 | 
[V:1] G8- | 
[V:2] d8 | 
[V:3] B8 | 
[V:4] G,,2G,3F,G,2 | 
[V:1] G4G4 | 
[V:2] z8 | 
[V:3] c8 | 
[V:4] E,2C,6 | 
[V:1] G4F4 | 
[V:2] z4d4 | 
[V:3] d8 | 
[V:4] G,4D,4 | 
[V:1] B4A4 | 
[V:2] d4c4 | 
[V:3] z8 | 
[V:4] B,,4F,4 | 
[V:1] G2B4AG | 
[V:2] B8 | 
[V:3] z4d4 | 
[V:4] z2G,6 | 
[V:1] F3GA4 | 
[V:2] A8 | 
[V:3] d4c4 | 
[V:4] D,3E,F,G,A,2 | 
[V:1] D4G4- | 
[V:2] G8 | 
[V:3] B8 | 
[V:4] B,2G,3D,G,2 | 
[V:1] G2^FEF4 | 
[V:2] d8 | 
[V:3] A8 | 
[V:4] D,3C,D,4 | 
[V:1] G8 | 
[V:2] B8 | 
[V:3] G8- | 
[V:4] G,,4z4 | 
[V:1] z4G4 | 
[V:2] c8 | 
[V:3] G8 | 
[V:4] C,8 | 
[V:1] B8 | 
[V:2] d8- | 
[V:3] z8 | 
[V:4] B,,4G,,4 | 
[V:1] A4F4- | 
[V:2] d8 | 
[V:3] d8 | 
[V:4] D,4z2D,2- | 
[V:1] F2D2G4 | 
[V:2] z8 | 
[V:3] B8 | 
[V:4] D,C,D,2E,3D, | 
[V:1] E2A3GA2 | 
[V:2] z8 | 
[V:3] c8 | 
[V:4] E,2F,3E,F,2 | 
[V:1] F2B4A2- | 
[V:2] z4d4 | 
[V:3] d8 | 
[V:4] D,2G,4F,2 | 
[V:1] A2GFA2G2- | 
[V:2] d4c4 | 
[V:3] z8 | 
[V:4] D,3E,F,2_E,2- | 
[V:1] G2F2G4 | 
[V:2] B8 | 
[V:3] z4d4 | 
[V:4] E,2D,2G,4 | 
[V:1] A4z2A2 | 
[V:2] A8 | 
[V:3] d4c4 | 
[V:4] D,3E,F,G,A,F, | 
[V:1] B3cd2G2- | 
[V:2] G8 | 
[V:3] B8 | 
[V:4] G,2G,,3A,,B,,C, | 
[V:1] G2^FEF4 | 
[V:2] z8 | 
[V:3] A8 | 
[V:4] D,4D,4 | 
[V:1] G4z2G2 | 
[V:2] z4G4 | 
[V:3] G8 | 
[V:4] E,4E,4 | 
[V:1] F2EDC2E2- | 
[V:2] A6G2 | 
[V:3] z8 | 
[V:4] D,3E,F,2C,2 | 
[V:1] EDD3^CC=B, | 
[V:2] F4E4 | 
[V:3] z4G4 | 
[V:4] D,4z4 | 
[V:1] D4z4 | 
[V:2] D8 | 
[V:3] A6G2 | 
[V:4] F,6E,2 | 
[V:1] D4E4 | 
[V:2] z8 | 
[V:3] F4E4 | 
[V:4] D,4C,4 | 
[V:1] F4D2B,2 | 
[V:2] z4D4 | 
[V:3] D8 | 
[V:4] D,2B,,4A,,G,, | 
[V:1] C4B,4 | 
[V:2] F4G4 | 
[V:3] z4D4 | 
[V:4] A,,4G,,4 | 
[V:1] F4D4 | 
[V:2] A4B4 | 
[V:3] F4G4 | 
[V:4] D,4G,,4 | 
[V:1] F6G2 | 
[V:2] A4d4 | 
[V:3] A4B4 | 
[V:4] D,8 | 
[V:1] A3Bc4 | 
[V:2] c4A4 | 
[V:3] A8 | 
[V:4] z4F,4 | 
[V:1] B2AGF3G | 
[V:2] B8 | 
[V:3] d8 | 
[V:4] G,4D,4 | 
[V:1] A6GF | 
[V:2] A8 | 
[V:3] c4A4 | 
[V:4] F,8 | 
[V:1] E2D2G4 | 
[V:2] z4G4 | 
[V:3] B8 | 
[V:4] G,8 | 
[V:1] A3GFEF2 | 
[V:2] F4F4 | 
[V:3] A8 | 
[V:4] D,8 | 
[V:1] G2E3DC2 | 
[V:2] E8 | 
[V:3] z4G4 | 
[V:4] C,8 | 
[V:1] B,2A,4D2- | 
[V:2] D8 | 
[V:3] F8 | 
[V:4] z4D,4 | 
[V:1] D2^C=B,C4 | 
[V:2] z8 | 
[V:3] E8 | 
[V:4] A,,8 | 
[V:1] D6E2 | 
[V:2] z4d4 | 
[V:3] D8 | 
[V:4] A,8 | 
[V:1] F4G4- | 
[V:2] d4d4 | 
[V:3] z8 | 
[V:4] z4G,4 | 
[V:1] G2A2B4- | 
[V:2] d4d4 | 
[V:3] z4d4 | 
[V:4] G,4G,4 | 
[V:1] B2A2G4 | 
[V:2] G8 | 
[V:3] d4d4 | 
[V:4] G,4G,4 | 
[V:1] F4z2F2 | 
[V:2] A8 | 
[V:3] d4d4 | 
[V:4] D,8 | 
[V:1] E2D2G4- | 
[V:2] G8 | 
[V:3] G8 | 
[V:4] E,8 | 
[V:1] G2^FEF4 | 
[V:2] z4d4 | 
[V:3] A8 | 
[V:4] D,8 | 
[V:1] G8 | 
[V:2] B4c4 | 
[V:3] G8 | 
[V:4] G,4E,4 | 
[V:1] z8 | 
[V:2] d4z2d2 | 
[V:3] z8 | 
[V:4] F,4G,4 | 
[V:1] z8 | 
[V:2] d3cB2A2- | 
[V:3] z8 | 
[V:4] z2G,2G,2F,2 | 
[V:1] z4D4 | 
[V:2] AGG4F2 | 
[V:3] d4B4 | 
[V:4] G,4D,4 | 
[V:1] E4F4 | 
[V:2] G4z4 | 
[V:3] c4d4 | 
[V:4] C,4z4 | 
[V:1] G2A2B2A2- | 
[V:2] z8 | 
[V:3] z2d2d2c2 | 
[V:4] z8 | 
[V:1] AGG4^F2 | 
[V:2] d4d2d2 | 
[V:3] B4A4 | 
[V:4] z4D,4 | 
[V:1] G8 | 
[V:2] B2B2c2d2 | 
[V:3] G4z2G2 | 
[V:4] _E,3D,C,2B,,2 | 
[V:1] z4z2G2 | 
[V:2] c2A3Bc2 | 
[V:3] A3GF2E2 | 
[V:4] A,,4z4 | 
[V:1] A3GF2E2 | 
[V:2] F3GABc2 | 
[V:3] D4z4 | 
[V:4] D,6C,2 | 
[V:1] D4z2D2 | 
[V:2] d2B2A4- | 
[V:3] z2D2F3G | 
[V:4] B,,2G,,2D,4 | 
[V:1] F3GA2B2- | 
[V:2] A2G2c2B2 | 
[V:3] A2B2A2d2 | 
[V:4] z2G,2F,2G,2 | 
[V:1] BAA4G2 | 
[V:2] c4z2d2- | 
[V:3] c2BAB4 | 
[V:4] A,2F,2G,4 | 
[V:1] A3GF2E2- | 
[V:2] d2c3Bc2 | 
[V:3] A4z2G2 | 
[V:4] D,2F,4C,2 | 
[V:1] EDD4^C2 | 
[V:2] A2B2A4 | 
[V:3] F4E4 | 
[V:4] D,4A,,4 | 
[V:1] D4z2D2 | 
[V:2] F4z2A2 | 
[V:3] D4z2d2 | 
[V:4] A,4z2D,2- | 
[V:1] F2G2B2A2- | 
[V:2] A2B2G2A2 | 
[V:3] d2d2d2d2 | 
[V:4] D,2G,4F,2 | 
[V:1] AGG4^F2 | 
[V:2] B2c2d4 | 
[V:3] G4A4 | 
[V:4] G,2E,2D,4 | 
[V:1] G8 |]  
[V:2] d8 |]  
[V:3] G8 |]  
[V:4] G,,8 |]  



